web/packages/design/src/ResourceIcon/assets/atlassianstatuspage.svg

<svg width="72" height="72" viewBox="0 0 72 72" fill="none" xmlns="http://www.w3.org/2000/svg">
<path d="M35.9984 62.0344C45.3345 62.0344 52.903 54.6128 52.903 45.4579C52.903 36.3026 45.3345 28.8813 35.9984 28.8813C26.6622 28.8813 19.0938 36.3026 19.0938 45.4579C19.0938 54.6128 26.6622 62.0344 35.9984 62.0344Z" fill="url(#paint0_linear_15936_6932)"/>
<path d="M0.452185 26.3239L9.53233 36.8382C10.2085 37.6909 11.4643 37.7856 12.2371 37.0276C26.9199 24.1453 45.0802 24.1453 59.763 37.0276C60.5356 37.6909 61.7914 37.5962 62.4676 36.8382L71.5478 26.3239C72.224 25.5661 72.1275 24.3347 71.3545 23.6717C50.1031 5.39004 21.8968 5.39004 0.645379 23.6717C-0.1274 24.3347 -0.223997 25.5661 0.452185 26.3239Z" fill="#2684FF"/>
<defs>
<linearGradient id="paint0_linear_15936_6932" x1="36.0055" y1="56.3207" x2="36.0055" y2="27.0019" gradientUnits="userSpaceOnUse">
<stop stop-color="#2684FF"/>
<stop offset="0.824" stop-color="#0052CC"/>
</linearGradient>
</defs>
</svg>

<svg xmlns="http://www.w3.org/2000/svg" width="72" height="72" fill="none" viewBox="0 0 72 72"><path fill="url(#a)" d="M35.998 62.034c9.337 0 16.905-7.421 16.905-16.576S45.335 28.88 35.998 28.88c-9.336 0-16.904 7.422-16.904 16.577s7.568 16.576 16.904 16.576"/><path fill="#2684ff" d="m.452 26.324 9.08 10.514c.677.853 1.932.948 2.705.19 14.683-12.883 32.843-12.883 47.526 0 .773.663 2.028.568 2.705-.19l9.08-10.514c.676-.758.58-1.99-.194-2.652C50.105 5.39 21.898 5.39.645 23.672c-.772.663-.869 1.894-.193 2.652"/><defs><linearGradient id="a" x1="36.005" x2="36.005" y1="56.321" y2="27.002" gradientUnits="userSpaceOnUse"><stop stop-color="#2684ff"/><stop offset=".824" stop-color="#0052cc"/></linearGradient></defs></svg>
